X:125
T:Hyd y Frwynen - The Length of the Rush
M:4/4
L:1/4
Q:90
C:Trad.
R:Processional
K:G
E B B A/G/ | F>E E ^D | E F G A | B/A/ B/c/ B2:||
B B/c/ d B | A A/B/ c B/A/ | B c d c/B|
A G F2 | G/A/ B B A/G/ | F/G/ A A G/F/|
G F/E/ B A/G/ | F>E E2 ||
